svgs/kizzy.svg

<svg width="192" height="192" viewBox="0 0 192 192" fill="none" xmlns="http://www.w3.org/2000/svg">
<path d="M114.474 95.0245L68.7765 69.5307V105.95C68.7765 113.963 68.7765 117.605 72.2917 123.432C85.0136 109.056 95.1929 103.662 114.474 95.0245Z" stroke="black" stroke-width="8" stroke-miterlimit="2.36797" stroke-linecap="round" stroke-linejoin="round"/>
<path d="M59.6637 74.257C59.6637 74.257 65.9911 78.4015 65.9911 86.6397C60.6189 82.2612 57.5491 80.2739 51.9302 77.899C37.4319 71.9407 28 58.7349 28 46.5781C28 24.5005 53.0895 11.6402 68.8033 26.1831C53.3295 21.5217 40.6815 28.7382 40.6815 46.5781C40.6815 56.0472 47.0089 64.7879 59.6637 74.257Z" stroke="black" stroke-width="8" stroke-miterlimit="2.36797" stroke-linecap="round" stroke-linejoin="round"/>
<path d="M111.819 82.2804C111.819 82.2804 105.191 85.8854 98.3044 81.7663C104.65 79.1353 107.846 77.3747 112.641 73.5206C124.871 63.4911 140.625 61.6312 150.787 67.7096C169.241 78.7484 167.446 107.69 147.433 114.518C159.066 102.965 159.358 88.0081 144.446 79.0881C136.531 74.3536 126.061 75.6605 111.819 82.2804Z" stroke="black" stroke-width="8" stroke-miterlimit="2.36797" stroke-linecap="round" stroke-linejoin="round"/>
<path d="M79.3286 126.169C79.3286 126.169 79.6292 118.42 86.5154 114.301C85.5416 121.31 85.4153 125.058 86.2396 131.287C88.5084 147.275 82.1857 162.34 72.024 168.419C53.5696 179.458 30.2751 163.376 34.5745 142.006C38.4149 158.22 50.7711 165.96 65.6833 157.04C73.5984 152.306 77.7409 142.258 79.3286 126.169Z" stroke="black" stroke-width="8" stroke-miterlimit="2.36797" stroke-linecap="round" stroke-linejoin="round"/>
<mask id="path-2-inside-1_1_2" fill="white">
<path d="M139.123 86.631L141.411 91.4343C141.57 91.7684 141.878 91.9999 142.234 92.0534L147.351 92.8237C148.247 92.9587 148.604 94.0995 147.956 94.754L144.254 98.4928C143.996 98.7528 143.879 99.1277 143.94 99.4946L144.814 104.774C144.967 105.699 144.03 106.404 143.228 105.967L138.652 103.475C138.334 103.302 137.953 103.302 137.635 103.475L133.059 105.967C132.257 106.404 131.32 105.699 131.474 104.774L132.348 99.4946C132.408 99.1277 132.291 98.7528 132.034 98.4928L128.331 94.754C127.683 94.099 128.04 92.9583 128.937 92.8237L134.053 92.0534C134.409 91.9999 134.717 91.7684 134.876 91.4343L137.164 86.631C137.565 85.7897 138.722 85.7897 139.123 86.631Z"/>
</mask>
<path d="M139.123 86.631L141.411 91.4343C141.57 91.7684 141.878 91.9999 142.234 92.0534L147.351 92.8237C148.247 92.9587 148.604 94.0995 147.956 94.754L144.254 98.4928C143.996 98.7528 143.879 99.1277 143.94 99.4946L144.814 104.774C144.967 105.699 144.03 106.404 143.228 105.967L138.652 103.475C138.334 103.302 137.953 103.302 137.635 103.475L133.059 105.967C132.257 106.404 131.32 105.699 131.474 104.774L132.348 99.4946C132.408 99.1277 132.291 98.7528 132.034 98.4928L128.331 94.754C127.683 94.099 128.04 92.9583 128.937 92.8237L134.053 92.0534C134.409 91.9999 134.717 91.7684 134.876 91.4343L137.164 86.631C137.565 85.7897 138.722 85.7897 139.123 86.631Z" stroke="black" stroke-width="12" mask="url(#path-2-inside-1_1_2)"/>
<mask id="path-3-inside-2_1_2" fill="white">
<path d="M54.1231 132.631L56.4112 137.434C56.5704 137.768 56.878 138 57.2339 138.053L62.3506 138.824C63.2469 138.959 63.6045 140.099 62.9562 140.754L59.2538 144.493C58.9965 144.753 58.8788 145.128 58.9397 145.495L59.8136 150.774C59.9668 151.699 59.0299 152.404 58.2284 151.967L53.6521 149.475C53.3339 149.302 52.9534 149.302 52.6352 149.475L48.0589 151.967C47.2574 152.404 46.3205 151.699 46.4736 150.774L47.3475 145.495C47.4085 145.128 47.2908 144.753 47.0335 144.493L43.3311 140.754C42.6828 140.099 43.0404 138.958 43.9367 138.824L49.0534 138.053C49.4093 138 49.7169 137.768 49.876 137.434L52.1642 132.631C52.5645 131.79 53.7223 131.79 54.1231 132.631Z"/>
</mask>
<path d="M54.1231 132.631L56.4112 137.434C56.5704 137.768 56.878 138 57.2339 138.053L62.3506 138.824C63.2469 138.959 63.6045 140.099 62.9562 140.754L59.2538 144.493C58.9965 144.753 58.8788 145.128 58.9397 145.495L59.8136 150.774C59.9668 151.699 59.0299 152.404 58.2284 151.967L53.6521 149.475C53.3339 149.302 52.9534 149.302 52.6352 149.475L48.0589 151.967C47.2574 152.404 46.3205 151.699 46.4736 150.774L47.3475 145.495C47.4085 145.128 47.2908 144.753 47.0335 144.493L43.3311 140.754C42.6828 140.099 43.0404 138.958 43.9367 138.824L49.0534 138.053C49.4093 138 49.7169 137.768 49.876 137.434L52.1642 132.631C52.5645 131.79 53.7223 131.79 54.1231 132.631Z" stroke="black" stroke-width="12" mask="url(#path-3-inside-2_1_2)"/>
<mask id="path-4-inside-3_1_2" fill="white">
<path d="M60.1231 31.631L62.4112 36.4343C62.5704 36.7684 62.878 36.9999 63.2339 37.0534L68.3506 37.8237C69.2469 37.9587 69.6045 39.0995 68.9562 39.754L65.2537 43.4928C64.9965 43.7528 64.8788 44.1277 64.9397 44.4946L65.8136 49.7741C65.9668 50.6987 65.0299 51.4037 64.2284 50.9674L59.6521 48.475C59.3339 48.3019 58.9534 48.3019 58.6352 48.475L54.0589 50.9674C53.2574 51.4041 52.3205 50.6987 52.4736 49.7741L53.3475 44.4946C53.4085 44.1277 53.2908 43.7528 53.0335 43.4928L49.3311 39.754C48.6828 39.099 49.0404 37.9583 49.9367 37.8237L55.0534 37.0534C55.4093 36.9999 55.7169 36.7684 55.876 36.4343L58.1642 31.631C58.5645 30.7897 59.7223 30.7897 60.1231 31.631Z"/>
</mask>
<path d="M60.1231 31.631L62.4112 36.4343C62.5704 36.7684 62.878 36.9999 63.2339 37.0534L68.3506 37.8237C69.2469 37.9587 69.6045 39.0995 68.9562 39.754L65.2537 43.4928C64.9965 43.7528 64.8788 44.1277 64.9397 44.4946L65.8136 49.7741C65.9668 50.6987 65.0299 51.4037 64.2284 50.9674L59.6521 48.475C59.3339 48.3019 58.9534 48.3019 58.6352 48.475L54.0589 50.9674C53.2574 51.4041 52.3205 50.6987 52.4736 49.7741L53.3475 44.4946C53.4085 44.1277 53.2908 43.7528 53.0335 43.4928L49.3311 39.754C48.6828 39.099 49.0404 37.9583 49.9367 37.8237L55.0534 37.0534C55.4093 36.9999 55.7169 36.7684 55.876 36.4343L58.1642 31.631C58.5645 30.7897 59.7223 30.7897 60.1231 31.631Z" stroke="black" stroke-width="12" mask="url(#path-4-inside-3_1_2)"/>
</svg>

<svg width="192" height="192" viewBox="0 0 192 192" fill="none" xmlns="http://www.w3.org/2000/svg"><path d="M114.474 95.025 68.776 69.53v36.419c0 8.013 0 11.655 3.516 17.482 12.722-14.376 22.9-19.77 42.182-28.407ZM59.664 74.257s6.327 4.144 6.327 12.383c-5.372-4.379-8.442-6.366-14.06-8.741C37.43 71.941 28 58.735 28 46.579 28 24.5 53.09 11.64 68.803 26.182c-15.473-4.661-28.121 2.555-28.121 20.395 0 9.47 6.327 18.21 18.982 27.679ZM111.819 82.28s-6.628 3.605-13.515-.514c6.346-2.63 9.542-4.391 14.337-8.245 12.23-10.03 27.984-11.89 38.146-5.811 18.454 11.038 16.659 39.98-3.354 46.808 11.633-11.553 11.925-26.51-2.987-35.43-7.915-4.734-18.385-3.427-32.627 3.192Z" stroke="#000" stroke-width="8" stroke-miterlimit="2.368" stroke-linecap="round" stroke-linejoin="round"/><path d="M79.329 126.169s.3-7.749 7.186-11.868c-.973 7.009-1.1 10.757-.275 16.986 2.268 15.988-4.054 31.053-14.216 37.132-18.454 11.039-41.749-5.043-37.45-26.413 3.84 16.214 16.197 23.954 31.11 15.034 7.914-4.734 12.057-14.782 13.645-30.871Z" stroke="#000" stroke-width="8" stroke-miterlimit="2.368" stroke-linecap="round" stroke-linejoin="round"/><mask id="a" fill="#fff"><path d="m139.123 86.631 2.288 4.803c.159.334.467.566.823.62l5.117.77c.896.135 1.253 1.276.605 1.93l-3.702 3.739c-.258.26-.375.635-.314 1.002l.874 5.279c.153.925-.784 1.63-1.586 1.193l-4.576-2.492a1.061 1.061 0 0 0-1.017 0l-4.576 2.492c-.802.437-1.739-.268-1.585-1.193l.874-5.28a1.161 1.161 0 0 0-.314-1.001l-3.703-3.739c-.648-.655-.291-1.796.606-1.93l5.116-.77c.356-.054.664-.286.823-.62l2.288-4.803a1.076 1.076 0 0 1 1.959 0Z"/></mask><path d="m139.123 86.631 2.288 4.803c.159.334.467.566.823.62l5.117.77c.896.135 1.253 1.276.605 1.93l-3.702 3.739c-.258.26-.375.635-.314 1.002l.874 5.279c.153.925-.784 1.63-1.586 1.193l-4.576-2.492a1.061 1.061 0 0 0-1.017 0l-4.576 2.492c-.802.437-1.739-.268-1.585-1.193l.874-5.28a1.161 1.161 0 0 0-.314-1.001l-3.703-3.739c-.648-.655-.291-1.796.606-1.93l5.116-.77c.356-.054.664-.286.823-.62l2.288-4.803a1.076 1.076 0 0 1 1.959 0Z" stroke="#000" stroke-width="12" mask="url(#a)"/><mask id="b" fill="#fff"><path d="m54.123 132.631 2.288 4.803c.16.334.467.566.823.619l5.117.771c.896.135 1.254 1.275.605 1.93l-3.702 3.739c-.258.26-.375.635-.314 1.002l.874 5.279c.153.925-.784 1.63-1.586 1.193l-4.576-2.492a1.061 1.061 0 0 0-1.017 0l-4.576 2.492c-.802.437-1.738-.268-1.585-1.193l.873-5.279a1.158 1.158 0 0 0-.314-1.002l-3.702-3.739c-.648-.655-.29-1.796.606-1.93l5.116-.771c.356-.053.664-.285.823-.619l2.288-4.803a1.076 1.076 0 0 1 1.96 0Z"/></mask><path d="m54.123 132.631 2.288 4.803c.16.334.467.566.823.619l5.117.771c.896.135 1.254 1.275.605 1.93l-3.702 3.739c-.258.26-.375.635-.314 1.002l.874 5.279c.153.925-.784 1.63-1.586 1.193l-4.576-2.492a1.061 1.061 0 0 0-1.017 0l-4.576 2.492c-.802.437-1.738-.268-1.585-1.193l.873-5.279a1.158 1.158 0 0 0-.314-1.002l-3.702-3.739c-.648-.655-.29-1.796.606-1.93l5.116-.771c.356-.053.664-.285.823-.619l2.288-4.803a1.076 1.076 0 0 1 1.96 0Z" stroke="#000" stroke-width="12" mask="url(#b)"/><mask id="c" fill="#fff"><path d="m60.123 31.631 2.288 4.803c.16.334.467.566.823.62l5.117.77c.896.135 1.254 1.276.605 1.93l-3.702 3.739c-.258.26-.375.635-.314 1.002l.874 5.28c.153.924-.784 1.629-1.586 1.192l-4.576-2.492a1.06 1.06 0 0 0-1.017 0l-4.576 2.492c-.802.437-1.738-.268-1.585-1.193l.873-5.28a1.157 1.157 0 0 0-.314-1.001l-3.702-3.739c-.648-.655-.29-1.796.606-1.93l5.116-.77c.356-.054.664-.286.823-.62l2.288-4.803a1.076 1.076 0 0 1 1.96 0Z"/></mask><path d="m60.123 31.631 2.288 4.803c.16.334.467.566.823.62l5.117.77c.896.135 1.254 1.276.605 1.93l-3.702 3.739c-.258.26-.375.635-.314 1.002l.874 5.28c.153.924-.784 1.629-1.586 1.192l-4.576-2.492a1.06 1.06 0 0 0-1.017 0l-4.576 2.492c-.802.437-1.738-.268-1.585-1.193l.873-5.28a1.157 1.157 0 0 0-.314-1.001l-3.702-3.739c-.648-.655-.29-1.796.606-1.93l5.116-.77c.356-.054.664-.286.823-.62l2.288-4.803a1.076 1.076 0 0 1 1.96 0Z" stroke="#000" stroke-width="12" mask="url(#c)"/></svg>
